!!!!SEGMENT: sonata59-1.krn
!!!COM: Haydn, Franz Joseph
!!!CDT: 1732/03/31-1809/05/31
!!!CNT: Austrian
!!!OTL: Sonata No. 59 in E-flat major
!!!SCT: Hob. XVI:49
!!!OMV: 1
!!!OMD: Allgero.
!!!ODT: 1789-1790
!!!PPR: Universal Edition 1-4
!!!PTL: Haydn Piano Sonatas, Vol. 3, No. 25
!!!ONB: Stich und Druck von Jos. Eberle & Co. Wien VII. Seidengasse 3-9
**kern	**kern	**dynam
*staff2	*staff1	*staff1/2
*Ipiano	*Ipiano	*Ipiano
*>[A,A,B,B]	*>[A,A,B,B]	*>[A,A,B,B]
*>norep[A,B]	*>norep[A,B]	*>norep[A,B]
*>A	*>A	*>A
*clefF4	*clefG2	*clefG2
*k[b-e-a-]	*k[b-e-a-]	*k[b-e-a-]
*E-:	*E-:	*E-:
*M3/4	*M3/4	*M3/4
*MM138	*MM138	*MM120
4r	(16GLL	mf
.	16B-	.
.	16A-	.
.	16cJJ	.
=1	=1	=1
!	!	!LO:DY:b=2
8EE- 8GG	8B-)	mf
8r	8r	.
8E- 8G	4r	.
8r	.	.
4r	(16gLL	.
.	16e-	.
.	16d	.
.	16fJJ	.
=2	=2	=2
8EE- 8GG	8e-)	.
8r	8r	.
8E- 8G	8r	.
8r	(8e-L	<
4r	8g	.
.	8b-J	[[
=3	=3	=3
4.c 4.e-	4b-	fz
.	8a-L)	.
8B-' 8d'L	8g'	.
8A-' 8c'	8f'	.
8G' 8B-'J	8e-'J	.
=4	=4	=4
4F 4A-	(8.dL	.
.	16fJk	.
4r	8a-')	.
.	8r	.
4r	(16B-LL	.
.	16d	.
.	16c	.
.	16e-JJ	.
!!LO:LB:g=z
=5	=5	=5
8BBB- 8DD	8d)	.
8r	8r	.
8BB- 8D	4r	.
8r	.	.
4r	(16dLL	.
.	16f	.
.	16e-	.
.	16gJJ	.
=6	=6	=6
8BBB- 8DD	8f)	.
8r	8r	.
8BB- 8D	8r	.
8r	(8fL	<
4r	8a-	.
.	8ccJ	[[
=7	=7	=7
4.d 4.f	4cc	fz
.	8b-L)	.
8c' 8e-'L	8a-'	.
8B-' 8d'	8g'	.
8A-' 8c'J	8f'J	.
=8	=8	=8
.	(e-32qqLLL	.
.	f32qq	.
.	e-32qq	.
.	d32qqJJJ	.
4G 4B-	(8.e-L)	.
.	16gJk	.
4r	8b-'/)	.
.	8r	.
4r	(16ee-LL	f
.	16dd	.
.	16ff	.
.	16ee-JJ	.
=9	=9	=9
!	!	!LO:DY:b=2
2.GG 2.BB- [2.E-	16ggLL	f
.	16ff	.
.	16aa-	.
.	16ggJJ	.
.	16bb-LL	.
.	16aa-	.
.	16gg	.
.	16ffJJ	.
.	16ee-LL	.
.	16dd	.
.	16cc	.
.	16bnJJ	.
!!LO:LB:g=z
=10	=10	=10
4.AA- 4.E-]	4bn	.
.	8cc`)	.
.	(dd32qqLLL	.
.	cc32qq	.
.	b32qqJJJ	.
8r	(8ccL)	p
4r	8dd	.
.	8ee-J)	.
=11	=11	=11
4r	(8ee-L>	.
.	8f'J)	.
4r	(8ccL	.
.	8c'J)	.
!	!	!LO:DY:b=2
4BB- 4F	(8a-L	p
.	8d'J)	.
=12	=12	=12
8r	8e-	.
(8E-'L	8r	.
8BB-'	4r	.
8GG'J	.	.
8EE-')	8r	.
8r	(8B-	.
=13	=13	=13
8r	[2e-	.
(8E-L	.	.
8G	.	.
8E-	.	.
8B-	8e-L]	.
8BB-J)	8dJ	.
=14	=14	=14
8r	[2a-	.
(8BB-L	.	.
8D	.	.
8BB-	.	.
8E-	8a-L])	.
8EE-J)	(>8gJ	.
=15	=15	=15
*	*^	*
8r	[2ee-	(2g	.
(8E-L	.	.	.
8G	.	.	.
8E-	.	.	.
8B-	8ee-L]	4f)	.
8BB-J)	8ddJ	.	.
!!LO:LB:g=z
=16	=16	=16	=16
8r	[2aa-)	[2ff	.
(8B-L	.	.	.
8d	.	.	.
8B-	.	.	.
8e-	8aa-L]	8ffL]	.
8E-J)	8ggJ	(>8ggJ	<
*	*v	*v	*
=17	=17	=17
8r	[2ccc	.
(8e-L	.	.
8g	.	.
8e-	.	.
8d	8cccL]	.
8fJ)	8bbnJ	.
=18	=18	=18
8r	[2ff [2ddd	.
(8GL	.	.
8Bn	.	.
8G	.	.
8c	8ff] 8dddL])	.
8CJ)	8ee- (8cccJ	.
=19	=19	=19
8r	4.gg 4.eee-	f
(8BBn' 8Bn'L	.	.
8C' 8c')	.	.
(8D 8d	8ff 8dddL	.
8E- 8e-	8ee- 8ccc	.
8En 8enJ	8dd 8bb-XJ	.
=20	=20	=20
*	*^	*
4.F 4.f)	4bb-	(4dd	>
.	8aan)	8cc)	]
*clefG2	*	*	*
(8b-L	(8ggL	4.cc	fz
8an	8ff	.	.
8gJ	8eenJ	.	.
=21	=21	=21	=21
4g	4een	4.cc	p
8an)	8ff)	.	.
(8b-L	(8ggL	4.cc	fz
8a	8ff	.	.
8gJ	8eeJ	.	.
!!LO:LB:g=z
=22	=22	=22	=22
4g	4een	4.cc	p
8an)	8ff)	.	.
(8b-L	(8ggL	8dd-L	fz
8a	8ff	8cc	.
8gJ	8eenJ	8b-J	.
*	*v	*v	*
=23	=23	=23
2g	2.b- 2.een	>
4g-	.	.
=24	=24	=24
2f;)	2an; 2ee-X;)	.
4r	(16dLL	] mf
.	16f	.
.	16e-	.
.	16gJJ	.
*clefF4	*	*
=25	=25	=25
!	!	!LO:DY:b=2
8BB- 8D	8f)	mf
8r	8r	.
8B- 8d	8r	.
8r	(16ggLL	.
.	16ffJJ	.
4r	16ee-LL	.
.	16dd	.
.	16cc	.
.	16b-JJ	.
=26	=26	=26
8FF 8AAn	8an)	.
8r	8r	.
8F 8An	4r	.
8r	.	.
4r	(16ccLL	.
.	16ee-	.
.	16dd	.
.	16ffJJ	.
=27	=27	=27
8FF 8AAn	8ee-)	.
8r	8r	.
8F 8An	8r	.
8r	(16cccLL	.
.	16bb-JJ	.
4r	16aanLL	.
.	16gg	.
.	16ff	.
.	16ee-JJ	.
!!LO:LB:g=z
=28	=28	=28
(16B-LL	8dd)	f
16f	.	.
16d	8r	.
16fJJ	.	.
16B-LL	(16b-LL	.
16f	16cc	.
16d	16dd	<
16fJJ	16ee-JJ	.
16B-LL	16ffLL	.
16f	16gg	.
16d	16aan	.
16fJJ	16bb-JJ	[[
=29	=29	=29
16cLL	4bb-	.
16f	.	.
16e-	.	.
16fJJ	.	.
16c'LL	8aanL)	.
16f	.	.
16B-'	8gg'	.
16fJJ	.	.
16An'LL	8ff'	.
16f	.	.
16c'	8ee-'J	.
16fJJ)	.	.
=30	=30	=30
(16B-LL	(8cc#L	>
16f	.	.
16d	8ddJ)	]
16fJJ	.	.
16B-LL	(16b-LL	<
16f	16ccn	.
16d	16dd	.
16fJJ	16ee-JJ	.
16B-LL	16ffLL	.
16f	16gg	.
16d	16aan	.
16fJJ	16bb-JJ	.
=31	=31	=31
16cLL	4bb-	[
16f	.	.
16e-	.	.
16fJJ	.	.
16c'LL	8aanL)	.
16f	.	.
16B-'	8gg'	.
16fJJ	.	.
16An'LL	8ff'	.
16f	.	.
16c'	8ee-'J	.
16fJJ	.	.
!!LO:LB:g=z
=32	=32	=32
(16B-LL)	(8cc#L	.
16f	.	.
16d	8ddJ)	.
16fJJ	.	.
16B-LL	(16b-LL	.
16f	16ccn	.
16d	16dd	.
16fJJ	16ee-JJ	.
16B-LL	16ffLL	.
16f	16gg	.
16d	16aa-X	.
16fJJ	16bb-JJ	.
=33	=33	=33
16A-XLL	4.ccc)	.
16f	.	.
16d	.	.
16fJJ	.	.
16A-LL	.	.
16f	.	.
16d	(8cccsSSsL	.
16fJJ	.	.
16A-LL	8.fff	.
16f	.	.
16d	.	.
16fJJ	16dddJk	.
=34	=34	=34
16GLL	4ccc	.
16f	.	.
16d	.	.
16fJJ	.	.
16GLL	4..bbntt	.
16f	.	.
16d	.	.
16fJJ	.	.
16GLL	.	.
16f	.	.
16d	.	.
16fJJ	32aanLLL	.
.	32bbJJJ	.
=35	=35	=35
16GLL	8.cccSSsL	.
16e-	.	.
16c	.	.
16e-JJ	16dddJk	.
16GLL	8eee-L)	.
16e-	.	.
16c	16r	.
16e-JJ	(16dddJk	.
16G-LL	8cccL)	.
16e-	.	.
16c	16r	.
16e-JJ	(16bb-Jk	.
!!LO:LB:g=z
=36	=36	=36
16FLL	4bb-	.
16e-	.	.
16c	.	.
16e-JJ	.	.
16FLL	8.aantL	.
16e-	.	.
16c	.	.
16e-JJ	32ggLL	.
.	32aaJJJ	.
16GnLL	4bb-)	.
16d	.	.
16B-	.	.
16dJJ	.	.
=37	=37	=37
4E-)	(16aanLL	p
.	16gg	.
.	16ff#	.
.	16ggJJ	.
4r	16ff#LL	.
.	16gg	.
.	16ff#	.
.	16ggJJ	.
4r	8bb-L	.
.	8gg'J)	.
*clefG2	*	*
=38	=38	=38
4e- 4g	(16ffnLL	.
.	16ee-	.
.	16dd	.
.	16ee-JJ	.
4r	16ddLL	.
.	16ee-	.
.	16dd	.
.	16ee-JJ	.
4r	8ggL	.
.	8ee-'J)	.
=39	=39	=39
2.ryy	(16ddLL>	<
.	16ccJJ	.
.	16bnLL	.
.	16ccJJ	.
.	16ddLL>	.
.	16ccJJ	.
.	16bLL	.
.	16ccJJ	.
.	16ddLL>	.
.	16ccJJ	.
.	16bLL	.
.	16ccJJ)	.
!!LO:LB:g=z
=40	=40	=40
2.r	(4ff#	f <
.	gg32qqLL	.
.	ff#32qq	.
.	een32qqJJ	.
.	8.ff#L	.
.	16aanJk	[ >
!	!LO:TUP:a	!
.	12ggL	.
.	12ee-X	.
.	12ccJ	]
*clefF4	*	*
=41	=41	=41
*	*^	*
2F 2d	2ryy	(4.b-)	.
.	.	8b-sSSs	p
4F 4e-	8ddL	4an	.
.	8ccJ	.	.
*	*v	*v	*
=42	=42	=42
!	!	!LO:DY:b=2
(16B-LL	4b-)	f
16f	.	.
16d	.	.
16fJJ	.	.
16B-LL	8r	.
16f	.	.
*	*clefF4	*clefF4
!	!	!LO:DY:a
16d	8FF'L	f
16fJJ	.	.
16B-LL	8BB-'	.
16f	.	.
16d	8D'J	.
16fJJ	.	.
=43	=43	=43
16AnLL	(4.E-	fz
16f	.	.
16c	.	.
16fJJ	.	.
16ALL	.	.
16f	.	.
16c	16CLL	.
16fJJ	16AAnJJ	.
16ALL	8FFL)	.
16f	.	.
16c	(8EE-J	.
16fJJ	.	.
!!LO:LB:g=z
=44	=44	=44
(16B-LL)	8DD')	.
16f	.	.
16d	8r	.
16fJJ	.	.
16B-LL	8r	.
16f	.	.
*	*clefG2	*clefG2
16d	8ff'L	.
16fJJ	.	.
16B-LL	8bb-'	.
16f	.	.
16d	8ddd'J	.
16fJJ	.	.
=45	=45	=45
.	(32qqffLLL	.
.	32qqaan	.
.	32qqcccJJJ	.
16AnLL	(4.eee-)	fz
16f	.	.
16c	.	.
16fJJ	.	.
16ALL	.	.
16f	.	.
16c	16cccLL	.
16fJJ	16aanJJ)	.
16ALL	8ff'L	.
16f	.	.
16c	8ee-'J	.
16fJJ	.	.
=46	=46	=46
(16B-LL)	8dd'	.
16f	.	.
16d	8r	.
16fJJ	.	.
16B-LL	8r	.
16f	.	.
*	*clefF4	*clefF4
16d	8FF'L	.
16fJJ	.	.
16B-LL	8BB-'	.
16f	.	.
16d	8D'J	.
16fJJ	.	.
=47	=47	=47
16AnLL	8E-'	.
16f	.	.
16c	16r	.
16fJJ	(32E-LLL>	.
.	32CJJJ	.
16ALL	8AAn)	.
16f	.	.
16c	16r	.
16fJJ	(32CLLL	.
.	32AAJJJ	.
16ALL	8FF'L)	.
16f	.	.
16c	8EE-'J	.
16fJJ	.	.
!!LO:LB:g=z
=48	=48	=48
(16B-LL)	8DD'	.
16f	.	.
16d	8r	.
16fJJ	.	.
*	*clefG2	*clefG2
16B-LL	16r	.
16f	(16ffLL	.
16d	16bb-	.
16fJJ	16dddJJ	.
16B-LL	8fff'L)	.
16f	.	.
16d	8fff'J	.
16fJJ	.	.
=49	=49	=49
4An)	(16eee-LL	.
.	16fff	.
.	16eee-	.
.	16dddJJ	.
4r	16cccLL	.
.	16bb-	.
.	16aan	.
.	16ggJJ	.
4r	16ffLL	.
.	16ee-	.
.	16dd	.
.	16ccJJ	.
=50	=50	=50
8B-	8b-'L)	.
8r	8bb- 8dddJ	>
*clefG2	*	*
8f	8r	.
8r	8aan 8ccc	.
8g	8r	.
8r	8gg 8bb-	.
=51	=51	=51
8d	8r	.
8r	8ff 8aa-X	.
8e-	8r	.
8r	8ee- 8gg	.
8g 8bn	8r	.
8r	8dd 8ff	.
!!LO:LB:g=z
=52	=52	=52
8a-X	8r	.
8r	8cc 8ee-	.
4r	4r	.
4r	4r	.
=53	=53	=53
2.r	4r	.
.	8r	.
.	8cc' (8ee-'L	p
.	8cc' 8ee-'	.
.	8cc' 8ee-'J)	.
=54	=54	=54
4r	[2.cc [2.ee-	.
8r	.	.
!	!	!LO:DY:b=2
(8a-'L	.	p
8a-'	.	.
8a-'J)	.	.
=55	=55	=55
2.a-	4.cc] 4.ee-]	.
.	8cc' (8ee-'L	.
.	8cc' 8ee-'	<
.	8cc' 8ee-'J)	.
*clefF4	*	*
=56	=56	=56
4r	[2.cc [2.ee-	.
8r	.	.
(8A-'L	.	.
8A-'	.	.
8A-'J)	.	.
=57	=57	=57
(4A-	2cc] 2ee-]	<
4G	.	.
4G-	4b- 4dd- (4een	[ f
=58	=58	=58
2.F 2.B- 2.d)	4.f: 4.b-: 4.ddn: 4.ff:	.
.	16ggLL	.
.	16ffJJ	.
.	16ee-LL	.
.	16dd	.
.	16cc	.
.	16b-JJ	.
!!LO:LB:g=z
=59	=59	=59
2.F 2.c 2.e-	(4.an)	.
.	(dd32qqLLL	.
.	cc32qq	.
.	bn32qqJJJ	.
.	8ccL)	.
.	8ee-	.
.	8aJ	.
*clefG2	*	*
=60	=60	=60
*^	*	*^
!	!	!	!LO:DY:b	!LO:DY:b=2:rj
8r	[2.B-	8b-L)	p	p
*	*	*	*v	*v
(8dL	.	(8f	.
8e-	.	8g-	.
8en	.	8gn	.
8f	.	8a-X	.
8f#J	.	8anJ	.
=61	=61	=61	=61
8gL	2.B-_	8b-L	.
8fn	.	8bn	.
8e-X	.	8cc	.
8d	.	8dd	.
8c	.	8ee-	.
8e-J	.	8anJ	.
=62	=62	=62	=62
8d)	8B-]	8b-)	.
8r	8ryy	8dd (8ffL	f
4r	4ryy	8ee- 8gg	.
.	.	8dd 8ff	.
4r	4ryy	8cc 8ee-	.
.	.	8b- 8ddJ	.
*v	*v	*	*
*clefF4	*	*
=63	=63	=63
!	!	!LO:DY:b=2
(8FF 8FL	4an 4cc)	f
8EEn 8En	.	.
8EE- 8E-	4r	.
8DD 8D	.	.
8CC 8C	4cc 4ee- (4aan	.
8FF 8FJ	.	.
=64	=64	=64
4BBB-) 4BB-	4dd 4ff 4bb-)	.
4r	4r	.
!!LO:LB:g=z
=:|!|:	=:|!|:	=:|!|:
*>B	*>B	*>B
4r	8r	.
.	(8d 8f	p
=65	=65	=65
4r	8e- 8gL	.
.	8d 8f	.
4r	8c 8e-	.
.	8B- 8d	.
8r	8An 8c	.
!	!	!LO:DY:b=2
(8F	8c 8e-J	p
=66	=66	=66
*	*^	*
8GL	4B-) 4d	4ryy	.
8F	.	.	.
8E-	(4.b-	(4d	.
8D	.	.	.
8C	.	4e-	.
8FJ	8an	.	.
*	*v	*v	*
=67	=67	=67
)8BB-L	4d 4a-X	.
(8B-	.	.
8c	4e- 4g))	.
8B-	.	.
8A-X	(<4g [4ee-	.
8GJ	.	.
=68	=68	=68
*	*^	*
8FL	4ee-]	4.a-)	.
8c	.	.	.
8B-	[2dd	.	.
8A-	.	(8ccL	.
8G	.	8b-	.
8FJ	.	8a-J	.
=69	=69	=69	=69
8E-L	4dd]	4.g)	.
8B-	.	.	.
8A-	[2cc	.	.
8G	.	(8b-L	.
8F	.	8a-	.
8E-J	.	8gJ	.
=70	=70	=70	=70
8DL	4cc]	4.f)	.
8A-	.	.	.
8G	(2bn	.	.
8F	.	8a-XL	.
8E-	.	8g	.
8DJ	.	8fJ	.
!!LO:LB:g=z
=71	=71	=71	=71
8CL)	(4b-X)	4en	.
(8c	.	.	.
8d-	4a-)	4f	.
8c	.	.	.
8B-	([4ff	4a-	.
8A-XJ	.	.	.
=72	=72	=72	=72
8GL	4ff]	2.b-	.
8d-	.	.	.
8c	4een	.	.
8B-	.	.	.
8A-	[4gg)	.	.
8GJ	.	.	.
=73	=73	=73	=73
8A-L	(8ggL]	2.cc	.
8B-	8een	.	.
8A-	8ff	.	.
8G	8ggJ	.	.
8F	[4aa-)	.	.
8E-XJ	.	.	.
=74	=74	=74	=74
8DnL	(4aa-]	8bnL	.
8C	.	8ccJ	.
8BBn	4gg	[2dd	.
8GG	.	.	.
8AAn	4ff	.	.
8BBJ	.	.	.
=75	=75	=75	=75
8CL	2.ee-)	4dd]	.
8D	.	.	.
8E-	.	[2cc	.
8En	.	.	.
8F	.	.	.
8F#J	.	.	.
=76	=76	=76	=76
*^	*	*	*
4r	[2.G)	[2.dd	8ccL]	.
.	.	.	8an	.
8rc	.	.	8bn	.
(8BnL	.	.	8a-	.
8c	.	.	8g	.
8dJ	.	.	8fJ	.
*	*	*v	*v	*
!!LO:LB:g=z*
=77	=77	=77	=77
2e-	2.G_	(8ddL]	.
.	.	8bn	.
.	.	8cc	.
.	.	8dd	.
4c	.	8ee-	.
.	.	8f#J	.
=78	=78	=78	=78
4.Bn)	2.G_	8gL)	.
.	.	(8ff#	.
.	.	8gg	.
(8BL	.	8ffn	.
8c	.	8ee-	.
8dJ	.	8ddJ	.
=79	=79	=79	=79
2e-	2.G_	8ccL	.
.	.	8bn	.
.	.	8cc	.
.	.	8a-X	.
4c	.	8g	.
.	.	8f#J	.
=80	=80	=80	=80
4Bn)	4G]	4g)	.
4r	4ryy	4r	.
4r	4ryy	(16ccLL	mf
.	.	16ee-	.
.	.	16dd	.
.	.	16ffJJ	.
*v	*v	*	*
=81	=81	=81
!	!	!LO:DY:b=2:rj
8C 8E-	8ee-)	mf
8r	8r	.
8c 8e-	8r	.
8r	(16aa-LL	.
.	16ggJJ	.
4r	16ffLL	.
.	16ee-	.
.	16dd	.
.	16ccJJ	.
=82	=82	=82
8GG 8BBn	8bn)	.
8r	8r	.
8G 8Bn	4r	.
8r	.	.
4r	(16ddLL	.
.	16ff	.
.	16ee-	.
.	16ggJJ	.
!!LO:LB:g=z
=83	=83	=83
8GG 8BBn	8ff)	.
8r	8r	.
8G 8Bn	8r	.
8r	(16dddLL	.
.	16cccJJ	.
4r	16bbnLL	.
.	16aa-X	.
.	16gg	.
.	16ffJJ	.
*clefG2	*	*
=84	=84	=84
!	!	!LO:DY:b=2
(16cLL	8ee-)	f
16g	.	.
16e-	8r	.
16gJJ	.	.
16cLL	(16ccLL	f <
16g	16dd	.
16e-	16ee-	.
16gJJ	16ffJJ	.
16cLL	16ggLL	.
16g	16aan	.
16e-	16bbn	.
16gJJ	16cccJJ	[
=85	=85	=85
16dLL	4ccc	fz
16g	.	.
16f	.	.
16gJJ	.	.
16d'LL	8bbnL)	.
16g	.	.
16c'	8aa-X'	.
16gJJ	.	.
16Bn'LL	8gg'	.
16g	.	.
16d'	8ff'J	.
16gJJ	.	.
=86	=86	=86
()>16cLL	8ee-	.
16g	.	.
16e-	8r	.
16gJJ	.	.
16cLL	(16ccLL	<
16g	16dd	.
16e-	16ee-	.
16gJJ	16ffJJ	.
16cLL	16ggLL	.
16g	16aa-X	.
16e-	16bb-X	.
16gJJ	16cccJJ	[[
!!LO:LB:g=z
=87	=87	=87
16B-XLL	4.ddd-	fz
16g	.	.
16e-	.	.
16gJJ	.	.
16B-LL	.	.
16g	.	.
16e-	16bb-LL	.
16gJJ	16ggJJ	.
16B-LL	8ee-L)	.
16g	.	.
16e-	8dd-'J	.
16gJJ	.	.
*clefF4	*	*
=88	=88	=88
(16A-LL)	8cc'	.
16e-	.	.
16c	8r	.
16e-JJ	.	.
16A-LL	(16a-LL	.
16e-	16b-	.
16c	16cc	.
16e-JJ	16dd-JJ	.
16A-LL	16ee-LL	.
16e-	16ff	.
16c	16gg	.
16e-JJ	16aa-JJ	.
=89	=89	=89
16B-LL	4aa-	.
16e-	.	.
16d-	.	.
16e-JJ	.	.
16B-'LL	8ggL)	.
16e-	.	.
16A-'	8ff'	.
16e-JJ	.	.
16G'LL	8ee-'	.
16e-	.	.
16B-'	8dd-'J	.
16e-JJ	.	.
=90	=90	=90
(16A-LL)	8cc	.
16e-	.	.
16c	8r	.
16e-JJ	.	.
16A-LL	(16ccLL	.
16e-	16dd-	.
16c	16ee-	.
16e-JJ	16ffJJ	.
16A-LL	16ggLL	.
16e-	16aa-	.
16c	16bb-	.
16e-JJ	16cccJJ	.
!!LO:LB:g=z
=91	=91	=91
16GLL	4.bb-	.
16en	.	.
16B-	.	.
16eJJ	.	.
16GLL	.	.
16e	.	.
16B-	16ggLL	.
16eJJ	16eenJJ	.
16GLL	8cc'L)	.
16e	.	.
16B-	8b-'J	.
16eJJ	.	.
=92	=92	=92
(16FLL)	8a-	.
16c	.	.
16A-	8r	.
16cJJ	.	.
16FLL	(16fLL	.
16c	16g	.
16A-	16a-	.
16cJJ	16b-JJ	.
16FLL	16ccLL	.
16c	16ddn	.
16A-	16een	.
16cJJ	16ffJJ	.
=93	=93	=93
16GLL	4ff	>
16c	.	.
16B-	.	]
16cJJ	.	.
16G'LL	8eenL)	.
16c	.	.
16F'	8dd-'	.
16cJJ	.	.
16En'LL	8cc'	.
16c	.	.
16G'	8b-'J	.
16cJJ	.	.
=94	=94	=94
(16FLL)	8a-	.
16c	.	.
16A-	8r	.
16cJJ	.	.
16FLL	(>16fLL	.
16c	16g	.
16A-	16a-	.
16cJJ	16b-JJ	.
16FLL	16ccLL	.
16c	16ddn	.
16A-	16een	.
16cJJ	16ffJJ	.
!!LO:LB:g=z
=95	=95	=95
16E-XLL	4.gg-	>
16c	.	]]
16A-	.	.
16cJJ	.	.
16E-LL	.	.
16c	.	.
16A-	16ee-XLL	.
16cJJ	16ccJJ	.
16E-LL	8a-'L)	.
16c	.	.
16A-	8g-'J	.
16cJJ	.	.
=96	=96	=96
(16D-LL)	4f'	.
16A-	.	.
16F	.	.
16A-JJ	.	.
16D-LL	8r	.
16A-	.	.
16F	8ff'L	.
16A-JJ	.	.
16D-LL	8ff'	.
16A-	.	.
16F	8ff'J	.
16A-JJ	.	.
=97	=97	=97
.	(ee-32qqLL	.
.	ff32qqJJ	.
16CLL	(4.gg-)	.
16A-	.	.
16E-	.	.
16A-JJ	.	.
16CLL	.	.
16A-	.	.
16E-	16ee-LL	.
16A-JJ	16ccJJ	.
16CLL	8a-'L)	.
16A-	.	.
16E-	8g-'J	.
16A-JJ	.	.
=98	=98	=98
(16D-LL)	4f'	.
16A-	.	.
16F	.	.
16A-JJ	.	.
16D-LL	8r	.
16A-	.	.
16F	(16dd-LL	.
16A-JJ	16ffJJ	.
16D-LL	8aa-'L)	.
16A-	.	.
16F	8aa-'J	.
16A-JJ	.	.
!!LO:LB:g=z
=99	=99	=99
16CLL	(16gg-LL	.
16A-	16aa-	.
16E-	16gg-	.
16A-JJ	16ffJJ	.
16CLL	16ee-LL	.
16A-	16ff	.
16E-	16ee-	.
16A-JJ	16dd-JJ	.
16CLL	16ccLL	.
16A-	16b-	.
16E-	16a-	.
16A-JJ	16g-JJ	.
=100	=100	=100
(16D-LL)	4f)	.
16A-	.	.
16F	.	.
16A-JJ	.	.
16D-LL	8r	.
16A-	.	.
16F	8ffL	.
16A-JJ	.	.
16D-LL	8ff	.
16A-	.	.
16F	8ffJ	.
16A-JJ	.	.
=101	=101	=101
.	(ff32qqLLL	.
.	ggn32qqJJJ	.
16CLL	4.aa-)	fz
16A-	.	.
16F	.	.
16A-JJ	.	.
16CLL	.	.
16A-	.	.
16F	8ffL	.
16A-JJ	.	.
16CLL	8ff	.
16A-	.	.
16F	8ffJ	.
16A-JJ	.	.
=102	=102	=102
.	(ff32qqLLL	.
.	ggn32qqJJJ	.
16BBnLL	4.aa-)	fz
16A-	.	.
16F	.	.
16A-JJ	.	.
16BBLL	.	.
16A-	.	.
16F	8ffL	.
16A-JJ	.	.
16BBLL	8ff	.
16A-	.	.
16F	8ffJ	.
16A-JJ	.	.
!!LO:LB:g=z
=103	=103	=103
4C)	(16eenLL	ff
.	16cc	.
.	16ee	.
.	16ggJJ	.
4r	16cccLL	.
.	16cc	.
.	16ee	.
.	16ggJJ	.
*clefG2	*	*
(4c' 4en'	16cccLL	.
.	16bb-X	.
.	16aa-X	.
.	16ggJJ	.
=104	=104	=104
4c' 4f')	16aa-LL	.
.	16cc	.
.	16ff	.
.	16aa-JJ	.
4r	16cccLL	.
.	16cc	.
.	16ff	.
.	16aa-JJ	.
(4c' 4a-'	16cccLL	.
.	16aa-	.
.	16gg	.
.	16ffJJ	.
=105	=105	=105
4c' 4g')	16eenLL	.
.	16cc	.
.	16ee	.
.	16ggJJ	.
8r	16cccLL	.
.	16cc	.
(8c' 8en'L	16ee	.
.	16ggJJ	.
8c' 8e'	16cccLL	.
.	16bb-	.
8c' 8e'J)	16aa-	.
.	16ggJJ	.
=106	=106	=106
4c 4f	16aa-LL	.
.	16cc	.
.	16ff	.
.	16aa-JJ	.
8r	16cccLL	.
.	16cc	.
(8c' 8a-'L	16ff	.
.	16aa-JJ	.
8c' 8a-'	16cccLL	.
.	16aa-	.
8c' 8a-'J)	16gg	.
.	16ffJJ	.
!!LO:LB:g=z
=107	=107	=107
.	(een32qqLLL	.
.	gg32qqJJJ	.
4c 4g	4ccc))	.
4r	4r	.
4r	4r	.
=108	=108	=108
2.r	4r	.
.	8r	.
.	8b-' (8dd-'L	p
.	8b-' 8dd-'	.
.	8b-' 8dd-'J)	.
=109	=109	=109
4r	8b- 8dd-	.
.	8r	.
8r	4r	.
*clefF4	*	*
!	!	!LO:DY:b=2
(8EEn'L	.	p
8EE'	4r	.
8EE'J)	.	.
=110	=110	=110
8EEn	4r	.
8r	.	.
8r	8r	.
*clefG2	*	*
(8en' 8g'L	8b-' (8cc'L	.
8e' 8g'	8b-' 8cc'	.
8e') 8g'J	8b-' 8cc'J)	.
=111	=111	=111
8en 8g	8b- 8cc	.
8r	8r	.
8r	4r	.
*clefF4	*	*
(8FF'L	.	.
8FF'	4r	.
8FF'J)	.	.
=112	=112	=112
8FF	4r	.
8r	.	.
8r	8r	.
*clefG2	*	*
(8e-X'L	8an' (8gg-'L	.
8e-'	8a' 8gg-'	.
8e-'J)	8a' 8gg-'J)	.
!!LO:LB:g=z
=113	=113	=113
8e-	8an 8gg-	.
8r	8r	.
8r	4r	.
*clefF4	*	*
(8CC'L	.	.
8CC'	4r	.
8CC'J)	.	.
=114	=114	=114
8CC	4r	.
8r	.	.
8r	8r	.
(8d-'L	8b-' (8ff'L	.
8d-'	8b-' 8ff'	.
8d-'J)	8b-' 8ff'J)	.
=115	=115	=115
8d-	8b- 8ff	.
8r	8r	.
8r	4r	.
(8BBB-'L	.	.
8BBB-'	4r	.
8BBB-'J)	.	.
=116	=116	=116
8BBB-	4r	.
8r	.	.
8r	8r	.
*clefG2	*	*
(8g-'L	8b-' (8dd-'L	<
8g-'	8b-' 8dd-'	.
8g-'J)	8b-' 8dd-'J)	.
=117	=117	=117
*	*^	*
(4g-	2dd-	2b-	.
4f)	.	.	.
(4f-	([<4cc- 4ddn	([4a-	fz
=118	=118	=118	=118
2e-)	2ee-)	4a-] 4cc-]	.
.	.	4gn 4b-)	.
(>(4cn 4fn	&([4ee-	(4an	fz
=119	=119	=119	=119
*^	*	*	*
4g-	2B-)	4ee-])	2b-	.
4f)	.	4dd-&)	.	.
(4gn	4ryy	([4dd- 4een	[4b-	fz
*v	*v	*	*	*
!!LO:LB:g=z
=120	=120	=120	=120
2f)	2ff)	4b-] 4dd-]	.
!!!ONB: slur from nowhere?
.	.	4a-X 4cc	.
(>4dn (4g	([4ff	(4bn	fz
=121	=121	=121	=121
*^	*	*	*
4a-	2c)	4ff]	2cc)	.
4g)	.	4ee-X)	.	.
(4an	4ryy	([4ee- 4ff#	[4cc	fz
*v	*v	*	*	*
=122	=122	=122	=122
4.g)	4.gg)	((4cc] 4ee-]	.
.	.	8bn 8ddL))	.
(8f'L	(8aa-'L	8b 8dd	f
8f'	8aa-'	8b 8dd	.
8f'J)	8aa-'J)	8b 8ddJ	.
=123	=123	=123	=123
4f	4aa-	4bn 4dd	.
8r	4r	4ryy	.
*clefF4	*	*	*
!	!	!	!LO:DY:b=2:rj
(8BBBn'L	.	.	p
8BBB'	4r	4ryy	.
8BBB'J)	.	.	.
*	*v	*v	*
=124	=124	=124
4BBBn	4r	.
4r	8r	.
.	8ff' (8aa-'L	p
4r	8ff' 8aa-'	.
.	8ff' 8aa-'J)	.
=125	=125	=125
4r	4ff 4aa-	.
8r	4r	.
(8BBB-X'L	.	.
8BBB-'	4r	.
8BBB-'J)	.	.
*	*clefF4	*clefF4
=126	=126	=126
4BBB-	(16DLL	.
.	16F	.
.	16E-	.
.	16GJJ	.
8r	8F)	.
8A-' (8B-'L	8r	.
8A-' 8B-'	4r	.
8A-' 8B-'J)	.	.
*	*clefG2	*
!!LO:LB:g=z
=127	=127	=127
4A- 4B-	(16dLL	.
.	16f	.
.	16e-	.
.	16gJJ	.
8r	8f)	.
*clefG2	*	*
(8a-' 8b-'L	8r	.
8a-' 8b-'	4r	.
8a-') 8b-'J	.	.
=128	=128	=128
8a- 8b-	(16ddLL	.
.	16ff	.
8r	16ee-	.
.	16ggJJ	.
4r	8ff)	.
.	8r	.
(8a-' 8b-'L	(16ddLL	.
.	16ff	.
8a-' 8b-'J	16ee-	.
.	16ggJJ	.
=129	=129	=129
8a-' 8b-')	8ff)	.
8r	8r	.
(8a-' 8b-'L	(16ddLL	.
.	16ff	.
8a-' 8b-'J	16ee-	.
.	16ggJJ	.
8a-') 8b-'	8ff)	.
8r	8r	.
=130	=130	=130
2.r	(16a-LL	<
.	16b-	.
.	16cc	.
.	16ddJJ	.
.	16ee-LL	.
.	16ff	.
.	16gg	.
.	16aa-JJ	.
.	16bb-LL	.
.	16ccc	.
.	16ddd	.
.	16eee-JJ	[
!!LO:LB:g=z
=131	=131	=131
!!*M10/4	*M10/4	*M10/4
4B-; 4d; 4f; 4a-;	4fff;)	fz
*	*cue	*
!	!LO:TX:b:i:t=a piacere	!
4ryy	(32eee-LLL<	.
.	32ddd	.
.	32ccc	.
.	32bb-	.
.	32aa-	.
.	32gg	.
.	32ff	.
.	32aa-	.
4ryy	32gg	.
.	32bb-^	.
.	32aa-	.
.	32ccc	.
.	32bb-	.
.	32aa-	.
.	32gg	.
.	32ff	.
4ryy	32een	.
.	32gg	.
.	32ff	.
.	32aa-	.
.	32gg	.
.	32bb-^	.
.	32aa-	.
.	32gg	.
4ryy	32ff	.
.	32ee-	.
.	32dd	.
.	32gg	.
.	32ff	.
.	32ee-	.
.	32dd	.
.	32cc	.
4ryy	32bn	.
.	32b-	.
.	32an	.
.	32a-	.
.	32g	.
.	32g-	.
.	32f	.
.	32en	.
8ryy	32e-	.
.	32d	.
.	32d-	.
.	32c	.
32ryy	32c-JJJ)	.
4r	(8B-'L	.
.	8An'J)	.
*	*Xcue	*
4r;	(4A-;	.
!	!LO:TX:a:i:t=a tempo	!
4r	(16GLL)	mf
.	16B-	.
.	16A-	.
.	16cnJJ	.
*clefF4	*	*
!!LO:LB:g=z
=132	=132	=132
*M3/4	*M3/4	*M3/4
!	!	!LO:DY:b=2
8EE- 8GG	8B-)	mf
8r	8r	.
8E- 8G	4r	.
8r	.	.
4r	(16gLL	.
.	16e-	.
.	16d	.
.	16fJJ	.
=133	=133	=133
8EE- 8GG	8e-)	.
8r	8r	.
8E- 8G	8r	.
8r	(8e-L	<
4r	8g	.
.	8b-J	[[
=134	=134	=134
4.c (4.e-	4b-	fz
.	8a-'L)	.
8B-' 8d'L)	8g'	.
8A-' 8c'	8f'	.
8G' 8B-'J	8e-'J	.
=135	=135	=135
4F 4A-	(8.dL	.
.	16fJk	.
4r	8a-')	.
.	8r	.
4r	(16B-LL	.
.	16d	.
.	16c	.
.	16e-JJ	.
=136	=136	=136
8BBB- 8DD	8d)	.
8r	8r	.
8BB- 8D	4r	.
8r	.	.
4r	(16dLL	.
.	16f	.
.	16e-	.
.	16gJJ	.
=137	=137	=137
8BBB- 8DD	8f)	.
8r	8r	.
8BB- 8D	8r	.
8r	(>8fL	<
4r	8a-	.
.	8ccJ	[[
!!LO:LB:g=z
=138	=138	=138
4.d 4.f	4cc	fz
.	8b-L)	.
8c' 8e-'L	8a-'	.
8B-' 8d'	8g'	.
8A-' 8c'J	8f'J	.
=139	=139	=139
.	(e-32qqLLL	.
.	f32qq	.
.	e-32qq	.
.	d32qqJJJ	.
4G 4B-	(8.e-L)	.
.	16gJk	.
4r	8b-'/)	.
.	8r	.
4r	(16ee-LL	f
.	16dd	.
.	16ff	.
.	16ee-JJ	.
=140	=140	=140
!	!	!LO:DY:b=2
2.GG 2.BB- [2.E-	16ggLL	f
.	16ff	.
.	16aa-	.
.	16ggJJ	.
.	16bb-LL	.
.	16aa-	.
.	16gg	.
.	16ffJJ	.
.	16ee-LL	.
.	16dd	.
.	16cc	.
.	16bnJJ	.
=141	=141	=141
4.AA- 4.E-]	4bn	.
.	8cc`)	.
.	(dd32qqLLL	.
.	cc32qq	.
.	b32qqJJJ	.
8r	(8ccL)	p
4r	8dd	.
.	8ee-J)	.
=142	=142	=142
4r	(8ee-L>	.
.	8f'J)	.
4r	(8ccL	.
.	8c'J)	.
!	!	!LO:DY:b=2
4BB- 4F	(8a-L	p
.	8d'J)	.
=143	=143	=143
8r	8e-	.
(8E-'L	8r	.
8BB-'	4r	.
8GGJ	.	.
8EE-)	8r	.
8r	(>8B-	.
!!LO:LB:g=z
=144	=144	=144
8r	([2e-	mf
(8E-L	.	.
8G	.	.
8E-	.	.
8B-	8e-L]	.
8BB-J)	8dJ)	.
!!ONB: slur from nowhere?
=145	=145	=145
8r	[2a-	.
(8BB-L	.	.
8D	.	.
8BB-	.	.
8E-	8a-L])	.
8EE-J)	(>8gJ	.
=146	=146	=146
*	*^	*
8r	[2ee-	(2g	.
(8E-L	.	.	.
8G	.	.	.
8E-	.	.	.
8B-	8ee-L]	4f)	.
8BB-J)	8ddJ	.	.
=147	=147	=147	=147
8r	[2aa-	[2ff	<
(8B-L	.	.	.
8d	.	.	.
8B-	.	.	.
8e-	8aa-L])	8ffL]	.
8E-J)	8ggJ	(>8ggJ	.
*	*v	*v	*
=148	=148	=148
8r	[2ccc	.
(8e-L	.	.
8g	.	.
8e-	.	.
8d	8cccL]	.
8fJ)	8bbnJ	.
=149	=149	=149
8r	[2ff [2ddd	f
(8GL	.	.
8Bn	.	.
8G	.	.
8c	8ff] 8dddL])	.
8CJ)	(8ee- 8cccJ	.
*clefG2	*	*
=150	=150	=150
8r	[2dd- [2bb-	.
(8e-L	.	.
8g	.	.
8e-	.	.
8a-	8dd-] 8bb-L]	.
8A-J)	8cc 8aa-J	.
*clefF4	*	*
!!LO:LB:g=z
=151	=151	=151
8r	[2b- [2gg	.
(8CL	.	.
8En	.	.
8C	.	.
8F	8b-] 8ggL])	.
8FFJ)	8a- (8ffJ	.
*clefG2	*	*
=152	=152	=152
8r	[2cc [2aa-	>
(8dL	.	.
8f	.	.
8d	.	.
8e-	8cc] 8aa-L]	.
8gJ)	8b- 8ggJ	.
*clefF4	*	*
=153	=153	=153
8r	[2a- [2ff	.
(8c-L	.	.
8dn	.	.
8c-	.	.
8B-	8a-] 8ffL]	]
8e-J)	8g 8ee-J)	.
=154	=154	=154
[2.A- [2.cn [2.f	8r	.
.	(8ccL	mf
.	8ff	.
.	8een	.
.	8gg	.
.	8ffJ	.
=155	=155	=155
2.A-] 2.c] 2.f]	8bbnL	.
.	8ddd	.
.	8ccc	.
.	8gg	.
.	8aa-	.
.	8ffJ	.
*clefG2	*	*
=156	=156	=156
2.B- 2.f 2.a-	8ee-XL	>
.	8dd	.
.	8aa-	.
.	8ff	.
.	8dd	.
.	8cc-J	.
=157	=157	=157
2.r	8b-L	p
.	8an	.
.	8ff	.
.	8a	.
.	8ff	.
.	8a-J	.
*clefF4	*	*
!!LO:LB:g=z
=158	=158	=158
!	!	!LO:DY:b=2
(16E-LL	8g)	f
16B-	.	.
16G	8r	.
16B-JJ	.	.
!	!	!LO:DY:a
16E-LL	(16e-LL	f <
16B-	16f	.
16G	16g	.
16B-JJ	16a-JJ	.
16E-LL	16b-LL	.
16B-	16cc	.
16G	16dd	.
16B-JJ	16ee-JJ	[
=159	=159	=159
16FLL	4ee-	fz
16B-	.	.
16A-	.	.
16B-JJ	.	.
16F'LL	8ddL)	.
16B-	.	.
16E-'	8cc'	.
16B-JJ	.	.
16D'LL	8b-'	.
16B-	.	.
16F'	8a-'J	.
16B-JJ	.	.
=160	=160	=160
(16E-LL)	(8f#L	.
16B-	.	.
16G	8gJ)	.
16B-JJ	.	.
16E-LL	(16e-LL	.
16B-	16fn	.
16G	16g	.
16B-JJ	16a-JJ	.
16E-LL	16b-LL	.
16B-	16cc	.
16G	16dd	.
16B-JJ	16ee-JJ	.
=161	=161	=161
16FLL	4ee-	fz
16B-	.	.
16A-	.	.
16B-JJ	.	.
16F'LL	8ddL)	.
16B-	.	.
16E-'	8cc'	.
16B-JJ	.	.
16D'LL	8b-'	.
16B-	.	.
16F'	8a-'J	.
16B-JJ	.	.
!!LO:LB:g=z
=162	=162	=162
(16E-LL)	(8f#L	.
16B-	.	.
16G	8gJ)	.
16B-JJ	.	.
16E-LL	(16e-LL	.
16B-	16fn	.
16G	16g	.
16B-JJ	16a-JJ	.
16E-LL	16b-LL	.
16B-	16cc	.
16G	16dd-	.
16B-JJ	16ee-JJ	.
=163	=163	=163
16D-LL	4.ff)	>
16B-	.	.
16G	.	]
16B-JJ	.	.
16D-LL	.	.
16B-	.	.
16G	(8ffsSSs	.
16B-JJ	.	.
16D-LL	8.bb-L	.
16B-	.	.
16G	.	.
16B-JJ	16ggJk	.
=164	=164	=164
16CLL	4ff	.
16B-	.	.
16G	.	.
16B-JJ	.	.
16CLL	4..eent	.
16B-	.	.
16G	.	.
16B-JJ	.	.
16CLL	.	.
16B-	.	.
16G	.	.
16B-JJ	32ddnLLL	.
.	32eeJJJ	.
=165	=165	=165
16CLL	8.ffSSsL	.
16A-	.	.
16F	.	.
16A-JJ	16ggJk	.
16CLL	8aa-L)	.
16A-	.	.
16F	16r	.
16A-JJ	(16ggJk	.
16C-LL	8ffL)	.
16A-	.	.
16F	16rdd	.
16A-JJ	(16ee-Jk	.
!!LO:LB:g=z
=166	=166	=166
16BB-LL	4ee-	.
16A-	.	.
16F	.	.
16A-JJ	.	.
16BB-LL	8.ddtL	.
16A-	.	.
16F	.	.
16A-JJ	32ccLL	.
.	32ddJJJ	.
16CnLL	4ee-)	.
16G	.	.
16E-	.	.
16GJJ	.	.
=167	=167	=167
4AA-)	(16ddLL	p
.	16cc	.
.	16bn	.
.	16ccJJ	.
4r	16bLL	.
.	16cc	.
.	16b	.
.	16ccJJ	.
4r	8ee-L	.
.	8cc'J)	.
=168	=168	=168
4c 4e-	16b-XLL	.
.	(16a-	.
.	16g	.
.	16a-JJ	.
4r	16gLL	.
.	16a-	.
.	16g	.
.	16a-JJ	.
4r	8ccL>	.
.	8a-'J)	.
=169	=169	=169
2.r	(16gLL	.
.	16fJJ	.
.	16enLL<	.
.	16fJJ	<
.	16dd-LL>	.
.	16ccJJ	.
.	16bnLL	.
.	16ccJJ	.
.	16ggLL>	.
.	16ffJJ	.
.	16eenLL	.
.	16ffJJ)	.
=170	=170	=170
2.r	(4bbn	f <
.	ccc32qLL	.
.	bbn32q	.
.	aan32qJJ	.
.	8.bbL	.
.	16dddJk	.
!	!LO:TUP:a	!
.	12cccL	[ >
.	12aa-	.
.	12ffJ	]]
*clefG2	*	*
!!LO:LB:g=z
=171	=171	=171
*	*^	*
2B- 2g	2ryy	4.ee-)	.
.	.	(8ee-sSSs	p
4B- 4a-	8ggL	4dd	.
.	8ffJ	.	.
*clefF4	*	*	*
*	*v	*v	*
=172	=172	=172
!	!	!LO:DY:b=2
(16E-LL	4ee-)	f
16B-	.	.
16G	.	.
16B-JJ	.	.
16E-LL	8r	.
16B-	.	.
!	!	!LO:DY:a:rj
16G	8b-'L	f
16B-JJ	.	.
16E-LL	8ee-'	.
16B-	.	.
16G	8gg'J	.
16B-JJ	.	.
=173	=173	=173
.	(32ddqqLLL	.
.	32ffqqJJJ	.
16DLL	(4.aa-)	fz
16B-	.	.
16F	.	.
16B-JJ	.	.
16DLL	.	.
16B-	.	.
16F	16ffLL	.
16B-JJ	16ddJJ	.
16DLL	8b-'L)	.
16B-	.	.
16F	8a-'J	.
16B-JJ	.	.
=174	=174	=174
(16E-LL)	4g	.
16B-	.	.
16G	.	.
16B-JJ	.	.
16E-LL	16r	.
16B-	(16b-LL	.
16G	16ee-	.
16B-JJ	16ggJJ	.
16E-LL	8bb-'L)	.
16B-	.	.
16G	8bb-'J	.
16B-JJ	.	.
=175	=175	=175
4D)	(16aa-LL	>
.	16bb-	.
.	16aa-	]
.	16ggJJ	.
4r	16ffLL	.
.	16ee-	.
.	16dd	.
.	16ccJJ	.
4r	16b-LL	.
.	16a-	.
.	16g	.
.	16fJJ	.
!!LO:LB:g=z
=176	=176	=176
8E-	8e-'L)	.
8r	8ee- 8ggJ	>
8B-	8r	.
8r	8dd 8ff	.
8c	8r	.
8r	8cc 8ee-	.
=177	=177	=177
8G	8r	.
8r	8b- 8dd-	.
8A-	8r	.
8r	8a- 8cc	.
8c 8en	8r	.
8r	8g 8b-	.
=178	=178	=178
8d-	8r	.
8r	8f 8a-	.
4r	4r	.
4r	4r	.
=179	=179	=179
2.r	4r	.
.	8r	.
.	(8f' 8a-'L	p
.	8f' 8a-'	.
.	8f') 8a-'J	.
=180	=180	=180
4r	[2.f [2.a-	.
8r	.	.
!	!	!LO:DY:b=2
(8d-'L	.	p
8d-	.	.
8d-'J)	.	.
=181	=181	=181
2d-	4.f] 4.a-]	.
.	(8gq	.
.	8f 8a-L)	.
.	(8gq	.
4r	8f 8a-)	.
.	(8gq	.
.	8f 8a-J)	.
=182	=182	=182
4r	[2.f [2.a-	.
8r	.	.
(C8q	.	.
8D-L)	.	.
(C8q	.	.
8D-)	.	.
(C8q	.	.
8D-J)	.	.
=183	=183	=183
(<4D-/	2f] 2a-]	<
4C	.	.
4C-	4e- 4g- (>4an	[ f
!!LO:LB:g=z
=184	=184	=184
2.BB- 2.E- 2.G)	4.e- 4.gn 4.b-	.
.	16ccLL	.
.	16b-JJ	.
.	16a-LL	.
.	16g	.
.	16f	.
.	16e-JJ	.
=185	=185	=185
2.BB- 2.F 2.A-	4.d)	.
.	(g32qqLL	.
.	f32qq	.
.	en32qqJJ	.
.	8fL	.
.	8a-	.
.	8dJ	.
=186	=186	=186
*^	*	*
8rc	[2.E-	8e-L)	p
(8GL	.	(>8B-	.
8A-	.	8c-	.
8An	.	8cn	.
8B-	.	8d-	.
8BnJ	.	8dnJ	.
=187	=187	=187	=187
8cL	2.E-_	8e-L	.
8B-X	.	8en	.
8A-X	.	8f	.
8G	.	8g	.
8F	.	8a-	.
8A-J	.	8dJ	.
=188	=188	=188	=188
8G)	8E-]	8e-)	.
8r	8ryy	(8g 8b-L	f
4r	4ryy	8a- 8cc	.
.	.	8g 8b-	.
4r	4ryy	8f 8a-	.
.	.	8e- 8gJ	.
*v	*v	*	*
=189	=189	=189
!	!	!LO:DY:b=2:rj
(8BB- 8B-L	4d) 4f	f
8AAn 8An	.	.
8AA- 8A-	4r	.
8GG 8G	.	.
8FF 8F	4f 4a- (4dd	.
8BB- 8B-J	.	.
=190	=190	=190
4EE- 4E-)	8g 8b- 8ee-)	.
.	8gg (8bb-L	p
4r	8aa- 8ccc	.
.	8gg 8bb-	.
4r	8ff 8aa-	.
.	8ee- 8ggJ	.
*clefG2	*	*
!!LO:LB:g=z
=191	=191	=191
8r	2dd (2ff)	p
(8b-L	.	.
8cc	.	.
8b-	.	.
8a-	4een 4gg	.
8gJ	.	.
=192	=192	=192
8fL)	4ff 4aa-	<
(8a-	.	.
8b-	4cc 4ee-	.
8a-	.	.
8g	4dd 4ff	.
8fJ	.	.
=193	=193	=193
8e-L)	8ee- 8ggL)	[
(8b-	8dd (8ff	.
8cc	8ee- 8aa-	.
8b-	8dd 8gg	.
8a-	8cc 8ff	.
8gJ	8b- 8ee-J	>
=194	=194	=194
8fL	8a- 8ddL	.
8e-	8g 8ccJ	.
8d	4f 4b-	.
8d-	.	.
8c	4e- 4an	.
8c-J	.	]]
=195	=195	=195
2B-;) 2d;	2d; 2a-X;)	.
8r	4r	.
*clefF4	*	*
!	!	!LO:DY:a=2
(8BB-	.	mf
=196	=196	=196
[2E-	8r	.
.	(8e-L	.
.	8g	.
.	8e-	.
8E-L]	8a-	.
8DJ)	8B-J)	.
=197	=197	=197
([2A-	8r	.
.	(8b-L>	.
.	8dd	.
.	8b-	.
8A-L]	8ee-	.
8GJ)	8e-J)	.
!!LO:LB:g=z
=198	=198	=198
([2d-	8r	.
.	(8ee-L	.
.	8gg	.
.	8ee-	.
8d-L]	8aa-	.
8cJ)	8a-J)	.
=199	=199	=199
8r	(8aanL	<
8e- 8f	8anJ)	.
8r	(8bb-L	.
8dn 8f	8b-J)	.
8r	(8bbnL	.
*clefG2	*	*
8f 8g	8bnJ)	.
=200	=200	=200
8r	(8cccL	f
8e- 8g	8ccJ)	.
8r	(8dddL	.
8a-X 8b-	8ddJ)	.
8r	(8eee-L	.
8g 8b-	8ee-J)	.
=201	=201	=201
2.r	4r	.
.	4r	.
.	8r	.
.	(8c	p
*clefF4	*	*
=202	=202	=202
8r	[2cc	.
!	!	!LO:DY:b=2:rj
(8AA-L	.	p
8A-	.	.
8F	.	.
8B-	8ccL]	.
8BB-J	8dJ	.
=203	=203	=203
4E-)	8e-)	.
.	(8g 8b-L	f
4r	8a- 8cc	.
.	8g 8b-	.
4r	8f 8a-	.
.	8e- 8gJ	.
=204	=204	=204
8r	4d) 4f	.
(8B-L	.	.
8An	4r	.
8B-	.	.
8A-	4r	.
8FJ	.	.
*	*clefF4	*clefF4
!!LO:LB:g=z
=205	=205	=205
4E-)	8r	.
.	(8G 8B-L	.
4r	8A- 8c	.
.	8G 8B-	.
4r	8F 8A-	.
.	8E- 8GJ	.
=206	=206	=206
8r	4D 4F)	.
(8BBB-L	.	.
8CC-	4r	.
8CCn	.	.
8DD-	4r	.
8DDnJ	.	.
=207	=207	=207
4EE-)	8r	.
.	(8E-L	mf
4r	8F-	.
.	8Fn	.
4r	8G-	.
.	8GnJ	.
=208	=208	=208
8r	([2A-)	.
(8CL	.	.
8E-	.	.
8C	.	.
8BB-	8A-L]	<
8E-J)	8GJ)	.
=209	=209	=209
8r	([2c	.
(8AA-L	.	.
8E-	.	.
8AA-	.	.
8GG	8cL]	.
8E-J)	8B-J)	.
*	*clefG2	*clefG2
=210	=210	=210
8r	2B- [>2f (>[2a-	f
(8DDL	.	.
8D	.	.
8DD	.	.
8EE-	8f] 8a-L]	.
8E-J)	8e- 8gJ)	.
=211	=211	=211
8AA- 8A-	8r	p
8r	8c 8f	.
8BB- 8G	8r	.
8r	8B- 8e-	.
8BB- 8F	8r	.
8r	8A- 8d	.
!!LO:LB:g=z
=212	=212	=212
8r	2B- [>2f [2a-	f
(8DDL	.	.
8D	.	.
8DD	.	.
8EE-	8f] 8a-L]	.
8E-J)	8e- 8gJ	.
=213	=213	=213
8AA- 8A-	8r	p
8r	8c 8f	.
8BB- 8G	8r	.
8r	8B- 8e-	.
8BB- 8F	8r	.
8r	8A- 8d	.
=214	=214	=214
4E- 4G	8r	mf
.	(8g 8b-L	,
4r	8a- 8cc	.
.	8g 8b-	.
4r	8f 8a-	.
.	8e-) 8gJ	.
=215	=215	=215
(<2.A- 2.B- 2.d 2.f	8r	.
.	(8bb-L	.
.	8ccc-	.
.	8cccn	<
.	8ddd-	.
.	8dddnJ	.
=216	=216	=216
4G 4B- 4e-)	8eee-)	.
.	(8g 8b-L	.
4r	8a- 8cc	.
.	8g 8b-	.
4r	8f 8a-	.
.	8e-) 8gJ	.
=217	=217	=217
2.BB- 2.D 2.F 2.A-	[4B-	f
.	(16B-LL]	.
.	16c	.
.	16d	.
.	16e-JJ	.
.	32fLLL>	.
.	32g	.
.	32a-	.
.	32b-	.
.	32cc	.
.	32dd	.
.	32ee-	.
.	32ffJJJ	.
=218	=218	=218
4EE- 4GG 4BB- 4E-	4gg)	.
4r	4r	.
==:|!	==:|!	==:|!
*-	*-	*-
!!!RDF**kern: > = above
!!!RDF**kern: < = below
!!!RDF**dynam: > = dim.
!!!SMS: Universal Edition 1, Haydn Piano Sonatas, Vol. 3, No. 25
!!!YOY: 1901
!!!ONB: Stich und Druck von Jos. Eberle & Co. Wien VII. Seidengasse 3-9
!!!ONM-ue: III:25.1
!!!YEC: 2021 Craig Stuart Sapp
!!!YEM: Licence: (CC BY-NC-SA 4.0) https://creativecommons.org/licenses/by-nc-sa/4.0
!!!YER: 2021
!!!ENC: Craig Stuart Sapp
!!!END: 2008/07/11
!!!EED: Craig Stuart Sapp
!!!EEV: 2021/02/02
!!!YEC: 2021 Craig Stuart Sapp
!!!URL: https://github.com/craigsapp/haydn-keyboard-sonatas
!!!URL-vhv: https://verovio.humdrum.org?file=haydn/sonatas/sonata59-1.krn
!!!URL-pdf: https://github.com/craigsapp/haydn-keyboard-sonatas/raw/master/reference-edition/sonata59-1.pdf
!!!title: @{OTL}, mvmt. @{OMV} (@{SCT}), UE @{ONM-ue}
